brandFactory_export/1.Light/Smartwifi smart wifi _1Light.svg

<?xml version="1.0" encoding="UTF-8"?>
<svg width="24px" height="24px" viewBox="0 0 24 24" version="1.1" xmlns="http://www.w3.org/2000/svg" xmlns:xlink="http://www.w3.org/1999/xlink">
    <title>1.Light/Smartwifi smart wifi _1Light</title>
    <g id="Symbols" stroke="none" stroke-width="1" fill="none" fill-rule="evenodd">
        <g id="1.Light/Smartwifi-smart-wifi-_1Light" fill="#5CB615" fill-rule="nonzero">
            <path d="M23.5983193,9.28739496 C23.6386555,9.19327731 23.6756303,9.01176471 23.5008403,8.8302521 L16.005042,1.14621849 C15.7932773,0.927731092 15.3663866,0.927731092 15.1546218,1.14621849 L8.3210084,8.14789916 L8.69747899,8.14789916 C9.6487395,8.14789916 10.3546218,8.39327731 10.8554622,8.90084034 C11.3563025,9.40840336 11.5983193,10.1142857 11.5983193,11.0655462 L11.5983193,17.8588235 L20.9764706,17.8588235 C21.2823529,17.8588235 21.5310924,17.6470588 21.5310924,17.3882353 L21.5310924,10.1042017 C21.5310924,9.82857143 21.7529412,9.60672269 22.0252101,9.60672269 L23.0739496,9.60672269 C23.3663866,9.60336134 23.5344538,9.43865546 23.5983193,9.28739496 L23.5983193,9.28739496 Z M10.610084,20.7058824 L10.610084,11.0655462 C10.610084,10.3932773 10.4588235,9.91596639 10.1529412,9.60336134 C9.84705882,9.29411765 9.3697479,9.14285714 8.69747899,9.14285714 L3.90420168,9.14285714 C3.23865546,9.14285714 2.76470588,9.29747899 2.45210084,9.61344538 C2.14285714,9.92941176 1.99159664,10.4033613 1.99159664,11.0621849 L1.99159664,20.7058824 C1.99159664,21.3848739 2.14285714,21.8655462 2.45210084,22.1747899 C2.75798319,22.4773109 3.23193277,22.6285714 3.90420168,22.6285714 L8.69747899,22.6285714 C9.3697479,22.6285714 9.84369748,22.4806723 10.1495798,22.1747899 C10.4588235,21.8655462 10.610084,21.3848739 10.610084,20.7058824 Z M24.2067227,8.13109244 C24.6168067,8.5512605 24.7344538,9.14285714 24.512605,9.67394958 C24.2773109,10.2386555 23.712605,10.6016807 23.0739496,10.6016807 L22.5226891,10.6016807 L22.5226891,17.3882353 C22.5226891,18.1983193 21.8302521,18.8571429 20.9764706,18.8571429 L11.5983193,18.8571429 L11.5983193,20.7092437 C11.5983193,21.6672269 11.3529412,22.3798319 10.8453782,22.8840336 C10.3445378,23.3848739 9.63865546,23.6268908 8.69411765,23.6268908 L3.90420168,23.6268908 C2.95630252,23.6268908 2.25378151,23.3848739 1.75294118,22.8840336 C1.2487395,22.3798319 1,21.6672269 1,20.7092437 L1,11.0689076 C1,10.1310924 1.24537815,9.42857143 1.74621849,8.9210084 C2.25378151,8.40336134 2.95966387,8.1512605 3.90420168,8.1512605 L6.9394958,8.1512605 C6.94285714,8.14789916 6.94621849,8.14117647 6.95294118,8.13445378 L14.4521008,0.450420168 C15.0336134,-0.144537815 16.1361345,-0.144537815 16.7176471,0.450420168 L24.2067227,8.13109244 Z M6.30084034,20.2722689 C6.81176471,20.2722689 7.11428571,20.5781513 7.11428571,21.092437 C7.11428571,21.3445378 7.04369748,21.5428571 6.90252101,21.687395 C6.76134454,21.8352941 6.55294118,21.912605 6.30084034,21.912605 C6.05210084,21.912605 5.84369748,21.8352941 5.70252101,21.687395 C5.56134454,21.5428571 5.4907563,21.3411765 5.4907563,21.092437 C5.48739496,20.5815126 5.78991597,20.2722689 6.30084034,20.2722689 L6.30084034,20.2722689 Z M15.7663866,13.7781513 C16.0386555,13.7714286 16.0386555,13.6504202 16.0386555,13.5327731 C16.0386555,13.4184874 16.0386555,13.287395 15.8134454,13.2840336 L15.7563025,13.2840336 C15.5613445,13.2840336 15.5445378,13.3815126 15.5445378,13.5294118 C15.5445378,13.6739496 15.5613445,13.7747899 15.7663866,13.7781513 Z M15.8470588,12.2890756 C16.4285714,12.2991597 17.0302521,12.6890756 17.0302521,13.5327731 C17.0302521,14.3731092 16.4319328,14.7630252 15.8369748,14.7731092 C15.1546218,14.7663866 14.5529412,14.3764706 14.5529412,13.5260504 C14.5529412,12.6756303 15.1546218,12.2890756 15.7495798,12.2857143 C15.7596639,12.2890756 15.8369748,12.2857143 15.8470588,12.2890756 Z M15.7495798,6.35966387 C15.8470588,6.35294118 18.5932773,6.21176471 20.4453782,8.29915966 C20.6268908,8.50420168 20.610084,8.82016807 20.405042,9.00168067 C20.3109244,9.08571429 20.1932773,9.12941176 20.0756303,9.12941176 C19.9411765,9.12941176 19.8033613,9.07226891 19.7058824,8.96470588 C18.1798319,7.25042017 15.8,7.35798319 15.7831933,7.35798319 C13.2554622,7.38487395 11.9310924,8.8 11.8773109,8.85714286 C11.692437,9.05882353 11.3798319,9.07563025 11.1781513,8.88739496 C10.9764706,8.70252101 10.9596639,8.38991597 11.1445378,8.18487395 C11.2084034,8.11092437 12.7915966,6.38991597 15.7495798,6.35966387 L15.7495798,6.35966387 Z M15.7529412,8.33277311 C15.8369748,8.33277311 18.0252101,8.25210084 19.4302521,9.83193277 C19.6117647,10.0369748 19.594958,10.3495798 19.389916,10.5344538 C19.1882353,10.7193277 18.8722689,10.6991597 18.6907563,10.4941176 C17.6016807,9.26722689 15.8,9.32436975 15.7798319,9.32773109 C13.9781513,9.34789916 12.902521,10.5042017 12.892437,10.5176471 C12.794958,10.6252101 12.6605042,10.6789916 12.5260504,10.6789916 C12.4084034,10.6789916 12.287395,10.6352941 12.1932773,10.5512605 C11.9915966,10.3663866 11.9747899,10.0537815 12.1563025,9.8487395 C12.210084,9.79159664 13.5176471,8.35966387 15.7529412,8.33277311 L15.7529412,8.33277311 Z M15.7630252,10.3529412 C15.8067227,10.3462185 17.2789916,10.2957983 18.2268908,11.3613445 C18.4084034,11.5663866 18.3915966,11.8789916 18.1865546,12.0638655 C17.9848739,12.2453782 17.6689076,12.2285714 17.487395,12.0235294 C16.8621849,11.3210084 15.810084,11.3378151 15.789916,11.3478992 C14.7310924,11.3613445 14.1159664,12.0134454 14.092437,12.0403361 C13.994958,12.1478992 13.8605042,12.2016807 13.7260504,12.2016807 C13.6084034,12.2016807 13.487395,12.1579832 13.3932773,12.0739496 C13.1915966,11.8890756 13.1747899,11.5764706 13.3596639,11.3714286 C13.3932773,11.3310924 14.2739496,10.3697479 15.7630252,10.3529412 Z" id="Smartwifi-smart-wifi-_1Light"></path>
        </g>
    </g>
</svg>

<svg width="24" height="24" viewBox="0 0 24 24" xmlns="http://www.w3.org/2000/svg"><path d="M23.598 9.287c.04-.094.078-.275-.097-.457l-7.496-7.684c-.212-.218-.639-.218-.85 0L8.32 8.148h.376c.952 0 1.658.245 2.158.753.501.507.743 1.213.743 2.165v6.793h9.378c.306 0 .555-.212.555-.47v-7.285c0-.275.222-.497.494-.497h1.049c.292-.004.46-.168.524-.32zM10.61 20.706v-9.64c0-.673-.151-1.15-.457-1.463-.306-.309-.783-.46-1.456-.46H3.904c-.665 0-1.14.154-1.452.47-.31.316-.46.79-.46 1.45v9.643c0 .679.15 1.16.46 1.469.306.302.78.454 1.452.454h4.793c.673 0 1.147-.148 1.453-.454.309-.31.46-.79.46-1.47zM24.207 8.13c.41.42.527 1.012.306 1.543-.236.565-.8.928-1.44.928h-.55v6.786c0 .81-.693 1.47-1.547 1.47h-9.378v1.851c0 .958-.245 1.67-.753 2.175-.5.5-1.206.743-2.15.743h-4.79c-.949 0-1.651-.242-2.152-.743C1.249 22.38 1 21.667 1 20.709v-9.64c0-.938.245-1.64.746-2.148.508-.518 1.214-.77 2.158-.77H6.94c.004-.003.007-.01.014-.017l7.5-7.684c.58-.595 1.683-.595 2.265 0l7.489 7.681zM6.3 20.272c.51 0 .813.306.813.82 0 .253-.07.45-.211.595-.142.148-.35.226-.602.226-.249 0-.457-.078-.598-.226-.142-.144-.212-.346-.212-.595-.004-.51.299-.82.81-.82zm9.465-6.494c.273-.007.273-.128.273-.245 0-.115 0-.246-.226-.249h-.057c-.195 0-.211.098-.211.245 0 .145.016.246.221.25zm.081-1.489c.582.01 1.183.4 1.183 1.244 0 .84-.598 1.23-1.193 1.24-.682-.007-1.284-.397-1.284-1.247 0-.85.602-1.237 1.197-1.24.01.003.087 0 .097.003zm-.097-5.93c.097-.006 2.843-.147 4.695 1.94a.499.499 0 01-.37.83.503.503 0 01-.37-.164C18.18 7.25 15.8 7.358 15.784 7.358c-2.528.027-3.852 1.442-3.906 1.5a.491.491 0 01-.699.03.499.499 0 01-.033-.703c.063-.074 1.647-1.795 4.605-1.825zm.003 1.974c.084 0 2.272-.08 3.677 1.499a.499.499 0 01-.04.702.492.492 0 01-.7-.04c-1.088-1.227-2.89-1.17-2.91-1.166-1.802.02-2.877 1.176-2.888 1.19a.492.492 0 01-.366.161.504.504 0 01-.333-.128.502.502 0 01-.037-.702c.054-.057 1.362-1.49 3.597-1.516zm.01 2.02c.044-.007 1.516-.057 2.464 1.008a.499.499 0 01-.04.703.495.495 0 01-.7-.04c-.625-.703-1.677-.686-1.697-.676-1.059.013-1.674.665-1.698.692a.492.492 0 01-.366.162.504.504 0 01-.333-.128.499.499 0 01-.033-.703c.033-.04.914-1.001 2.403-1.018z" fill="#5CB615" fill-rule="nonzero"/></svg>
